X:300
T:Scartaglen Reel, The
R:reel
Z:Transcribed by Dave Marshall
M:C|
K:D
|:DFEF D2Ad|c2AG EFGE|DFEF DFAd|cAGE ED~D2|
DFEF D2Ad|c2AG EFGE|Adde fded|cAGE ED~D2:|
|:f2fe fage|f2ge afge|f2fe fage|fdec Adde|
f2fe fage|f2ge afge|afge dfec|dBAG EFGE:|
